X:2466
L:1/8
M:4/4
K:G
 F | G2 GA Bcdc | Beed Beeg | G2 GA BcdB |1 (3ABc BA GEE :|2 (3ABc BA GEEf :| geef gefd | 
 Beed Beef | geef gedB | (3ABc BA GEEg | geef gefd Beed Beef | geaf fedB | (3ABc BA GE E2 |]

